public/assets/twitter.svg

<svg
  width="32px"
  height="32px"
  viewBox="0 0 512 512"
  fill="none"
  xmlns="http://www.w3.org/2000/svg"
>
  <path
    d="M459.583 149.216C459.895 153.845 459.895 158.474 459.895 163.146C459.895 305.493 354.23 469.661 161.015 469.661V469.576C103.939 469.661 48.0488 452.895 0 421.281C8.29933 422.305 16.6403 422.817 25.002 422.838C72.3019 422.881 118.25 406.605 155.462 376.634C110.512 375.759 71.0955 345.703 57.3257 301.823C73.0715 304.938 89.2958 304.298 104.75 299.968C55.7449 289.814 20.4883 245.657 20.4883 194.376C20.4883 193.906 20.4883 193.458 20.4883 193.01C35.0901 201.351 51.4392 205.98 68.1627 206.492C22.0067 174.857 7.77932 111.886 35.6518 62.6521C88.9838 129.954 167.671 170.868 252.142 175.198C243.676 137.782 255.241 98.5747 282.531 72.2727C324.839 31.4865 391.379 33.577 431.149 76.9444C454.674 72.1874 477.222 63.3347 497.856 50.7917C490.014 75.7285 473.603 96.9109 451.679 110.371C472.5 107.854 492.843 102.137 512 93.4125C497.897 115.086 480.134 133.964 459.583 149.216Z"
    fill="#fff"
  />
</svg>

<svg xmlns="http://www.w3.org/2000/svg" width="32" height="32" fill="none" viewBox="0 0 512 512"><path fill="#fff" d="M459.583 149.216c.312 4.629.312 9.258.312 13.93 0 142.347-105.665 306.515-298.88 306.515v-.085C103.939 469.661 48.049 452.895 0 421.281c8.3 1.024 16.64 1.536 25.002 1.557 47.3.043 93.248-16.233 130.46-46.204-44.95-.875-84.366-30.931-98.136-74.811a102.2 102.2 0 0 0 47.424-1.855c-49.005-10.154-84.262-54.311-84.262-105.592v-1.366c14.602 8.341 30.951 12.97 47.675 13.482-46.156-31.635-60.384-94.606-32.511-143.84 53.332 67.302 132.019 108.216 216.49 112.546-8.466-37.416 3.099-76.623 30.389-102.925 42.308-40.786 108.848-38.696 148.618 4.671 23.525-4.757 46.073-13.61 66.707-26.152-7.842 24.936-24.253 46.119-46.177 59.579A204.9 204.9 0 0 0 512 93.413c-14.103 21.673-31.866 40.551-52.417 55.803"/></svg>
